web/wp-content/themes/cncf-twenty-two/images/projects/athenz-icon-color.svg

<svg viewBox="0 0 150 150" xmlns="http://www.w3.org/2000/svg" xmlns:xlink="http://www.w3.org/1999/xlink"><linearGradient id="a" gradientUnits="userSpaceOnUse" x1="117.21" x2="31.59" y1="26.45" y2="26.45"><stop offset="0" stop-color="#2d4bff"/><stop offset="1" stop-color="#058ae5"/></linearGradient><linearGradient id="b" x1="91.99" x2="134.91" xlink:href="#a" y1="126.84" y2="59.13"/><linearGradient id="c" x1="15.23" x2="57.53" xlink:href="#a" y1="58.71" y2="127.25"/><linearGradient id="d" gradientUnits="userSpaceOnUse" x1="53.9" x2="102.6" y1="82.26" y2="52.83"><stop offset="0" stop-color="#058ae5"/><stop offset="1" stop-color="#2d4bff"/></linearGradient><path d="m32.39 47.9c-.21 2.2-.33 4.43-.33 6.69a66.2 66.2 0 0 0 42.94 62 66.2 66.2 0 0 0 42.94-62c0-2.26-.12-4.5-.33-6.7a65.56 65.56 0 0 0 -85.22 0z" fill="none"/><path d="m75 32.16a65.43 65.43 0 0 1 42.61 15.73l25.23-13.38a92.69 92.69 0 0 0 -135.68 0l25.23 13.39a65.4 65.4 0 0 1 42.61-15.74z" fill="url(#a)"/><path d="m142.84 34.51-25.23 13.38c.21 2.2.33 4.44.33 6.7a66.2 66.2 0 0 1 -42.94 62v28.41a93.51 93.51 0 0 0 67.84-110.49z" fill="url(#b)"/><path d="m32.06 54.59c0-2.26.12-4.49.33-6.69l-25.23-13.39a93.33 93.33 0 0 0 67.84 110.49v-28.44a66.2 66.2 0 0 1 -42.94-61.97z" fill="url(#c)"/><path d="m75 45.74a52.13 52.13 0 0 1 28.72 8.64 1.51 1.51 0 0 1 .67 1.29 52.65 52.65 0 0 1 -28.7 45.79 1.5 1.5 0 0 1 -1.37 0 52.6 52.6 0 0 1 -28.71-45.78 1.53 1.53 0 0 1 .67-1.3 52.13 52.13 0 0 1 28.72-8.64" fill="url(#d)"/></svg>

<svg id="Layer_1" data-name="Layer 1" xmlns="http://www.w3.org/2000/svg" xmlns:xlink="http://www.w3.org/1999/xlink" viewBox="0 0 150 150"><defs><style>.cls-1{fill:none;}.cls-2{fill:url(#linear-gradient);}.cls-3{fill:url(#linear-gradient-2);}.cls-4{fill:url(#linear-gradient-3);}.cls-5{fill:url(#linear-gradient-4);}</style><linearGradient id="linear-gradient" x1="117.21" y1="26.45" x2="31.59" y2="26.45" gradientUnits="userSpaceOnUse"><stop offset="0" stop-color="#2d4bff"/><stop offset="1" stop-color="#058ae5"/></linearGradient><linearGradient id="linear-gradient-2" x1="91.99" y1="126.84" x2="134.91" y2="59.13" xlink:href="#linear-gradient"/><linearGradient id="linear-gradient-3" x1="15.23" y1="58.71" x2="57.53" y2="127.25" xlink:href="#linear-gradient"/><linearGradient id="linear-gradient-4" x1="53.9" y1="82.26" x2="102.6" y2="52.83" gradientUnits="userSpaceOnUse"><stop offset="0" stop-color="#058ae5"/><stop offset="1" stop-color="#2d4bff"/></linearGradient></defs><path class="cls-1" d="M32.39,47.9c-.21,2.2-.33,4.43-.33,6.69a66.2,66.2,0,0,0,42.94,62,66.2,66.2,0,0,0,42.94-62c0-2.26-.12-4.5-.33-6.7a65.56,65.56,0,0,0-85.22,0Z"/><path class="cls-2" d="M75,32.16a65.43,65.43,0,0,1,42.61,15.73l25.23-13.38a92.69,92.69,0,0,0-135.68,0L32.39,47.9A65.4,65.4,0,0,1,75,32.16Z"/><path class="cls-3" d="M142.84,34.51,117.61,47.89c.21,2.2.33,4.44.33,6.7a66.2,66.2,0,0,1-42.94,62V145A93.51,93.51,0,0,0,142.84,34.51Z"/><path class="cls-4" d="M32.06,54.59c0-2.26.12-4.49.33-6.69L7.16,34.51A93.33,93.33,0,0,0,75,145V116.56A66.2,66.2,0,0,1,32.06,54.59Z"/><path class="cls-5" d="M75,45.74a52.13,52.13,0,0,1,28.72,8.64,1.51,1.51,0,0,1,.67,1.29,52.65,52.65,0,0,1-28.7,45.79,1.5,1.5,0,0,1-1.37,0A52.6,52.6,0,0,1,45.61,55.68a1.53,1.53,0,0,1,.67-1.3A52.13,52.13,0,0,1,75,45.74"/></svg>
